assets/icons/add_post_filled.svg

<svg width="33" height="32" viewBox="0 0 33 32" fill="none" xmlns="http://www.w3.org/2000/svg">
<path fill-rule="evenodd" clip-rule="evenodd" d="M23.9627 2.57453C22.1715 2.33371 19.8772 2.33373 16.9563 2.33374H16.8038C13.8829 2.33373 11.5886 2.33371 9.79741 2.57453C7.96187 2.82131 6.50553 3.33737 5.36126 4.48162C4.21701 5.62589 3.70095 7.08223 3.45417 8.91777C3.21335 10.709 3.21337 13.0032 3.21338 15.9241V16.0767C3.21337 18.9976 3.21335 21.2919 3.45417 23.0831C3.70095 24.9185 4.21701 26.3749 5.36126 27.5192C6.50553 28.6635 7.96187 29.1795 9.79741 29.4263C11.5886 29.6671 13.8828 29.6671 16.8038 29.6671H16.9563C19.8772 29.6671 22.1715 29.6671 23.9627 29.4263C25.7982 29.1795 27.2546 28.6635 28.3988 27.5192C29.5431 26.3749 30.0591 24.9185 30.3059 23.0831C30.5467 21.2919 30.5467 18.9976 30.5467 16.0767V15.9241C30.5467 13.0032 30.5467 10.709 30.3059 8.91777C30.0591 7.08223 29.5431 5.62589 28.3988 4.48162C27.2546 3.33737 25.7982 2.82131 23.9627 2.57453ZM18.2134 10.6671C18.2134 9.9307 17.6164 9.33374 16.88 9.33374C16.1436 9.33374 15.5467 9.9307 15.5467 10.6671V14.6671H11.5467C10.8103 14.6671 10.2134 15.264 10.2134 16.0004C10.2134 16.7368 10.8103 17.3337 11.5467 17.3337H15.5467V21.3337C15.5467 22.0701 16.1436 22.6671 16.88 22.6671C17.6164 22.6671 18.2134 22.0701 18.2134 21.3337V17.3337H22.2134C22.9498 17.3337 23.5467 16.7368 23.5467 16.0004C23.5467 15.264 22.9498 14.6671 22.2134 14.6671H18.2134V10.6671Z" fill="url(#paint0_linear_553_1595)"/>
<defs>
<linearGradient id="paint0_linear_553_1595" x1="-2.13445" y1="29.7452" x2="48.4401" y2="5.24437" gradientUnits="userSpaceOnUse">
<stop stop-color="#FF97CD"/>
<stop offset="1" stop-color="#FF349D"/>
</linearGradient>
</defs>
</svg>

<svg xmlns="http://www.w3.org/2000/svg" width="33" height="32" fill="none" viewBox="0 0 33 32"><path fill="url(#a)" fill-rule="evenodd" d="M23.963 2.575c-1.791-.241-4.086-.241-7.007-.241h-.152c-2.921 0-5.215 0-7.007.24-1.835.247-3.291.763-4.436 1.908-1.144 1.144-1.66 2.6-1.907 4.436-.24 1.791-.24 4.085-.24 7.006v.153c0 2.92 0 5.215.24 7.006.247 1.836.763 3.292 1.907 4.436s2.6 1.66 4.436 1.907c1.792.241 4.086.241 7.007.241h.152c2.921 0 5.216 0 7.007-.24 1.835-.247 3.292-.764 4.436-1.908s1.66-2.6 1.907-4.436c.24-1.791.24-4.085.24-7.006v-.153c0-2.92 0-5.215-.24-7.006-.247-1.836-.763-3.292-1.907-4.436s-2.6-1.66-4.436-1.907m-5.75 8.092a1.333 1.333 0 0 0-2.666 0v4h-4a1.333 1.333 0 1 0 0 2.667h4v4a1.333 1.333 0 1 0 2.666 0v-4h4a1.333 1.333 0 1 0 0-2.667h-4z" clip-rule="evenodd"/><defs><linearGradient id="a" x1="-2.134" x2="48.44" y1="29.745" y2="5.244" gradientUnits="userSpaceOnUse"><stop stop-color="#ff97cd"/><stop offset="1" stop-color="#ff349d"/></linearGradient></defs></svg>
